icons/angular/angular-original.svg

<?xml version="1.0" encoding="UTF-8"?>
<svg xmlns="http://www.w3.org/2000/svg" xmlns:xlink="http://www.w3.org/1999/xlink" viewBox="0 0 128 128" version="1.1">
  <g id="surface1">
    <path style=" stroke:none;fill-rule:nonzero;fill:rgb(86.666667%,0%,19.215686%);fill-opacity:1;" d="M 64 15.359375 L 16.332031 32.359375 L 23.601562 95.386719 L 64 117.761719 L 104.398438 95.386719 L 111.667969 32.359375 Z M 64 15.359375 "/>
    <path style=" stroke:none;fill-rule:nonzero;fill:rgb(76.470588%,0%,18.431373%);fill-opacity:1;" d="M 64 15.359375 L 64 26.726562 L 64 26.675781 L 64 117.761719 L 104.398438 95.386719 L 111.667969 32.359375 Z M 64 15.359375 "/>
    <path style=" stroke:none;fill-rule:nonzero;fill:rgb(100%,100%,100%);fill-opacity:1;" d="M 64 26.675781 L 34.203125 93.492188 L 45.3125 93.492188 L 51.300781 78.539062 L 76.59375 78.539062 L 82.585938 93.492188 L 93.695312 93.492188 Z M 72.703125 69.324219 L 55.296875 69.324219 L 64 48.382812 Z M 72.703125 69.324219 "/>
  </g>
</svg>

<svg xmlns="http://www.w3.org/2000/svg" viewBox="0 0 128 128"><path d="M64 15.36l-47.668 17 7.27 63.027L64 117.762l40.398-22.375 7.27-63.028zm0 0" fill="#dd0031"/><path d="M64 15.36v11.367-.051 91.086l40.398-22.375 7.27-63.028zm0 0" fill="#c3002f"/><path d="M64 26.676L34.203 93.492h11.11L51.3 78.54h25.293l5.992 14.953h11.11zm8.703 42.648H55.297L64 48.383zm0 0" fill="#fff"/></svg>
